X:2587
T:Canteros de Cuadonga (CT 187)
C:Tradicional
S:Música Tradicional Asturiana, (C) Tello & Tito. Asturies, 2001.
S:http://pagina.de/MusTradAst <telloytito@asturies.org>
N:Canción de empleo indeterminado, transcrito en Uviéu.
N:Se cantó mucho en la época en que se estaban realizando las obras de la Basílica de Cuadonga,
N: y la letra expresa rivallidades entre los obreros empleados en dichas obras, gente de diversas procedencias, y los naturales de la  comarca.
O:Uviéu
A:Asturies
Z:Cancioneru de Torner 187
M:3/8
L:1/8
Q:1/8=152
W:Canteros de Covadonga, (bis)
W:¡olé ya!
W:nun bajéis más a La Riera, (bis)
W:que vos la tienen jurada
W:¡olé ya!
W:los mozos de La Rivera.
K:G
G
|ccd|d2 c|(B/c/4B/4)Ad|ddd|c2 B|AGF/G/|A3-|AzA|ccd|c2 B|(A/B/4A/4)G2-|G z :||


